static/img/kroki/3a3dd99579f4cbd136462115c22617fa.svg

<?xml version="1.0" encoding="us-ascii" standalone="no"?><svg xmlns="http://www.w3.org/2000/svg" xmlns:xlink="http://www.w3.org/1999/xlink" contentStyleType="text/css" height="374px" preserveAspectRatio="none" style="width:309px;height:374px;" version="1.1" viewBox="0 0 309 374" width="309px" zoomAndPan="magnify"><defs/><g><!--class aws_resource--><g id="elem_aws_resource"><rect codeLine="23" fill="#3D176E" height="39.7891" id="aws_resource" rx="2.5" ry="2.5" style="stroke:#000D19;stroke-width:0.5;" width="155" x="7" y="167.79"/><ellipse cx="22" cy="187.6845" fill="#ADD1B2" rx="11" ry="11" style="stroke:#181818;stroke-width:1.0;"/><path d="M24.9688,193.3252 Q24.3906,193.622 23.75,193.7627 Q23.1094,193.9189 22.4063,193.9189 Q19.9063,193.9189 18.5781,192.2783 Q17.2656,190.622 17.2656,187.497 Q17.2656,184.372 18.5781,182.7158 Q19.9063,181.0595 22.4063,181.0595 Q23.1094,181.0595 23.75,181.2158 Q24.4063,181.372 24.9688,181.6689 L24.9688,184.3877 Q24.3438,183.8095 23.75,183.5439 Q23.1563,183.2627 22.5313,183.2627 Q21.1875,183.2627 20.5,184.3408 Q19.8125,185.4033 19.8125,187.497 Q19.8125,189.5908 20.5,190.6689 Q21.1875,191.7314 22.5313,191.7314 Q23.1563,191.7314 23.75,191.4658 Q24.3438,191.1845 24.9688,190.6064 L24.9688,193.3252 Z " fill="#000000"/><text fill="#D9B8FF" font-family="Helvetica" font-size="17" lengthAdjust="spacing" textLength="113" x="41" y="193.5698">aws_resource</text></g><!--class aws_waf_web_acl--><g id="elem_aws_waf_web_acl"><rect codeLine="26" fill="#3D176E" height="39.7891" id="aws_waf_web_acl" rx="2.5" ry="2.5" style="stroke:#000D19;stroke-width:0.5;" width="191" x="71" y="328.58"/><ellipse cx="86" cy="348.4745" fill="#ADD1B2" rx="11" ry="11" style="stroke:#181818;stroke-width:1.0;"/><path d="M88.9688,354.1152 Q88.3906,354.412 87.75,354.5527 Q87.1094,354.7089 86.4063,354.7089 Q83.9063,354.7089 82.5781,353.0683 Q81.2656,351.412 81.2656,348.287 Q81.2656,345.162 82.5781,343.5058 Q83.9063,341.8495 86.4063,341.8495 Q87.1094,341.8495 87.75,342.0058 Q88.4063,342.162 88.9688,342.4589 L88.9688,345.1777 Q88.3438,344.5995 87.75,344.3339 Q87.1563,344.0527 86.5313,344.0527 Q85.1875,344.0527 84.5,345.1308 Q83.8125,346.1933 83.8125,348.287 Q83.8125,350.3808 84.5,351.4589 Q85.1875,352.5214 86.5313,352.5214 Q87.1563,352.5214 87.75,352.2558 Q88.3438,351.9745 88.9688,351.3964 L88.9688,354.1152 Z " fill="#000000"/><text fill="#D9B8FF" font-family="Helvetica" font-size="17" lengthAdjust="spacing" textLength="149" x="105" y="354.3598">aws_waf_web_acl</text></g><!--class firewall--><g id="elem_firewall"><rect codeLine="29" fill="#3D176E" height="39.7891" id="firewall" rx="2.5" ry="2.5" style="stroke:#000D19;stroke-width:0.5;" width="105" x="197" y="167.79"/><ellipse cx="212" cy="187.6845" fill="#ADD1B2" rx="11" ry="11" style="stroke:#181818;stroke-width:1.0;"/><path d="M214.9688,193.3252 Q214.3906,193.622 213.75,193.7627 Q213.1094,193.9189 212.4063,193.9189 Q209.9063,193.9189 208.5781,192.2783 Q207.2656,190.622 207.2656,187.497 Q207.2656,184.372 208.5781,182.7158 Q209.9063,181.0595 212.4063,181.0595 Q213.1094,181.0595 213.75,181.2158 Q214.4063,181.372 214.9688,181.6689 L214.9688,184.3877 Q214.3438,183.8095 213.75,183.5439 Q213.1563,183.2627 212.5313,183.2627 Q211.1875,183.2627 210.5,184.3408 Q209.8125,185.4033 209.8125,187.497 Q209.8125,189.5908 210.5,190.6689 Q211.1875,191.7314 212.5313,191.7314 Q213.1563,191.7314 213.75,191.4658 Q214.3438,191.1845 214.9688,190.6064 L214.9688,193.3252 Z " fill="#000000"/><text fill="#D9B8FF" font-family="Helvetica" font-size="17" lengthAdjust="spacing" textLength="63" x="231" y="193.5698">firewall</text></g><!--class resource--><g id="elem_resource"><rect codeLine="32" fill="#3D176E" height="39.7891" id="resource" rx="2.5" ry="2.5" style="stroke:#000D19;stroke-width:0.5;" width="113" x="110" y="7"/><ellipse cx="125" cy="26.8945" fill="#ADD1B2" rx="11" ry="11" style="stroke:#181818;stroke-width:1.0;"/><path d="M127.9688,32.5352 Q127.3906,32.832 126.75,32.9727 Q126.1094,33.1289 125.4063,33.1289 Q122.9063,33.1289 121.5781,31.4883 Q120.2656,29.832 120.2656,26.707 Q120.2656,23.582 121.5781,21.9258 Q122.9063,20.2695 125.4063,20.2695 Q126.1094,20.2695 126.75,20.4258 Q127.4063,20.582 127.9688,20.8789 L127.9688,23.5977 Q127.3438,23.0195 126.75,22.7539 Q126.1563,22.4727 125.5313,22.4727 Q124.1875,22.4727 123.5,23.5508 Q122.8125,24.6133 122.8125,26.707 Q122.8125,28.8008 123.5,29.8789 Q124.1875,30.9414 125.5313,30.9414 Q126.1563,30.9414 126.75,30.6758 Q127.3438,30.3945 127.9688,29.8164 L127.9688,32.5352 Z " fill="#000000"/><text fill="#D9B8FF" font-family="Helvetica" font-size="17" lengthAdjust="spacing" textLength="71" x="144" y="32.7798">resource</text></g><!--reverse link resource to aws_resource--><g id="link_resource_aws_resource"><path codeLine="35" d="M148.3512,63.0435 C132.5912,93.5635 110.21,136.9 94.43,167.46 " fill="none" id="resource-backto-aws_resource" style="stroke:#FFAF37;stroke-width:2.0;"/><polygon fill="none" points="156.61,47.05,143.0201,60.2906,153.6824,65.7964,156.61,47.05" style="stroke:#FFAF37;stroke-width:2.0;"/></g><!--reverse link aws_resource to aws_waf_web_acl--><g id="link_aws_resource_aws_waf_web_acl"><path codeLine="36" d="M102.6488,223.8335 C118.4088,254.3535 140.79,297.69 156.57,328.25 " fill="none" id="aws_resource-backto-aws_waf_web_acl" style="stroke:#FFAF37;stroke-width:2.0;"/><polygon fill="none" points="94.39,207.84,97.3176,226.5864,107.9799,221.0806,94.39,207.84" style="stroke:#FFAF37;stroke-width:2.0;"/></g><!--reverse link firewall to aws_waf_web_acl--><g id="link_firewall_aws_waf_web_acl"><path codeLine="37" d="M231.1529,223.7928 C215.2029,254.3128 192.52,297.69 176.55,328.25 " fill="none" id="firewall-backto-aws_waf_web_acl" style="stroke:#FFAF37;stroke-width:2.0;"/><polygon fill="none" points="239.49,207.84,225.8353,221.0138,236.4705,226.5719,239.49,207.84" style="stroke:#FFAF37;stroke-width:2.0;"/></g><!--reverse link resource to firewall--><g id="link_resource_firewall"><path codeLine="38" d="M184.8471,63.0028 C200.7971,93.5228 223.48,136.9 239.45,167.46 " fill="none" id="resource-backto-firewall" style="stroke:#FFAF37;stroke-width:2.0;"/><polygon fill="none" points="176.51,47.05,179.5295,65.7819,190.1647,60.2238,176.51,47.05" style="stroke:#FFAF37;stroke-width:2.0;"/></g><!--SRC=[XP1BRy8m48Jl_XMME2EHeXQGUe58LNj1LUaTRUmriN3iQEqqee__tb9AwYGyZfxvl3ExkPR8iIZ3ZXTOP4YU-Qss9H0KV4xawjGPHtoW5AZnf6i-E1kk0aiea3-YUSEW1NI9rroBhKNl-KraBK1iD-GgAm_Z0u7rFnRQ456f0U_d8P3Ege1H6JdBfafroUxGmLWcapliOOuaqXyo6eraCkiYLwCkxjqGA_sEF8cFjdG1UpLx4R_KnPPx8YhPM_Jed-tu359gk-6taVPow4GMgQMlSf2ktjCAZ8zZV4125tObfhsjS3QLQd8IVZe7Cx4_7OVQhmczgqWW_s3iAz9hKEiQipK84rjA4zPWMbfxHFEw_nmEXwqCrWhyzwCirWISjZk_ZpJx1W00]--></g></svg>

<svg xmlns="http://www.w3.org/2000/svg" width="309" height="374" viewBox="0 0 309 374"><rect width="155" height="39.789" x="7" y="167.79" fill="#3D176E" rx="2.5" ry="2.5" style="stroke:#000d19;stroke-width:.5"/><circle cx="22" cy="187.685" r="11" fill="#ADD1B2" style="stroke:#181818;stroke-width:1"/><path d="M24.969 193.325q-.578.297-1.219.438-.64.156-1.344.156-2.5 0-3.828-1.64-1.312-1.657-1.312-4.782t1.312-4.781q1.328-1.656 3.828-1.656.703 0 1.344.156.656.156 1.219.453v2.719q-.625-.578-1.219-.844-.594-.281-1.219-.281-1.343 0-2.031 1.078-.687 1.062-.687 3.156t.687 3.172q.688 1.062 2.031 1.062.625 0 1.219-.265.594-.281 1.219-.86z"/><text x="41" y="193.57" fill="#D9B8FF" font-family="Helvetica" font-size="17" textLength="113">aws_resource</text><rect width="191" height="39.789" x="71" y="328.58" fill="#3D176E" rx="2.5" ry="2.5" style="stroke:#000d19;stroke-width:.5"/><circle cx="86" cy="348.474" r="11" fill="#ADD1B2" style="stroke:#181818;stroke-width:1"/><path d="M88.969 354.115q-.578.297-1.219.438-.64.156-1.344.156-2.5 0-3.828-1.64-1.312-1.657-1.312-4.782t1.312-4.781q1.328-1.656 3.828-1.656.703 0 1.344.156.656.156 1.219.453v2.719q-.625-.579-1.219-.844-.594-.281-1.219-.281-1.344 0-2.031 1.078-.687 1.062-.687 3.156t.687 3.172q.688 1.062 2.031 1.062.625 0 1.219-.265.594-.281 1.219-.86z"/><text x="105" y="354.36" fill="#D9B8FF" font-family="Helvetica" font-size="17" textLength="149">aws_waf_web_acl</text><rect width="105" height="39.789" x="197" y="167.79" fill="#3D176E" rx="2.5" ry="2.5" style="stroke:#000d19;stroke-width:.5"/><circle cx="212" cy="187.685" r="11" fill="#ADD1B2" style="stroke:#181818;stroke-width:1"/><path d="M214.969 193.325q-.578.297-1.219.438-.64.156-1.344.156-2.5 0-3.828-1.64-1.312-1.657-1.312-4.782t1.312-4.781q1.328-1.656 3.828-1.656.703 0 1.344.156.656.156 1.219.453v2.719q-.625-.578-1.219-.844-.594-.281-1.219-.281-1.344 0-2.031 1.078-.687 1.062-.687 3.156t.687 3.172q.688 1.062 2.031 1.062.625 0 1.219-.265.594-.281 1.219-.86z"/><text x="231" y="193.57" fill="#D9B8FF" font-family="Helvetica" font-size="17" textLength="63">firewall</text><rect width="113" height="39.789" x="110" y="7" fill="#3D176E" rx="2.5" ry="2.5" style="stroke:#000d19;stroke-width:.5"/><circle cx="125" cy="26.895" r="11" fill="#ADD1B2" style="stroke:#181818;stroke-width:1"/><path d="M127.969 32.535q-.578.297-1.219.438-.64.156-1.344.156-2.5 0-3.828-1.64-1.312-1.657-1.312-4.782t1.312-4.781q1.328-1.656 3.828-1.656.703 0 1.344.156.656.156 1.219.453v2.719q-.625-.578-1.219-.844-.594-.281-1.219-.281-1.344 0-2.031 1.078-.687 1.062-.687 3.156t.687 3.172q.688 1.062 2.031 1.062.625 0 1.219-.265.594-.281 1.219-.86z"/><text x="144" y="32.78" fill="#D9B8FF" font-family="Helvetica" font-size="17" textLength="71">resource</text><path fill="none" d="M148.351 63.044C132.591 93.564 110.21 136.9 94.43 167.46m62.18-120.41-13.59 13.24 10.662 5.506zm-53.961 176.784c15.76 30.52 38.141 73.856 53.921 104.416M94.39 207.84l2.928 18.746 10.662-5.505z" style="stroke:#ffaf37;stroke-width:2"/><g fill="none"><path d="M231.153 223.793c-15.95 30.52-38.633 73.897-54.603 104.457" style="stroke:#ffaf37;stroke-width:2"/><path d="m239.49 207.84-13.655 13.174 10.635 5.558z" style="stroke:#ffaf37;stroke-width:2"/></g><g fill="none"><path d="M184.847 63.003c15.95 30.52 38.633 73.897 54.603 104.457" style="stroke:#ffaf37;stroke-width:2"/><path d="m176.51 47.05 3.02 18.732 10.635-5.558z" style="stroke:#ffaf37;stroke-width:2"/></g></svg>
